X:1
T:Title
%%score { ( 1 4 5 ) | ( 2 3 ) }
L:1/8
M:6/8
K:D
V:1 treble nm="Grand Piano"
V:4 treble 
V:5 treble 
V:2 bass 
V:3 bass 
V:1
 z3 z2[Q:1/4=81] D | F2 F/F/ GFG | A d2- d2 [GA] | [Fd]2 F/F/ .[^G,DF]2[K:bass] [E,G,D] | %4
 [E,A,CE]3- [E,A,CE]2[K:treble] [A,CE] | D->[D=F]^F GFG | A2 ^A Bcd | dAG F>F[K:bass][G,CE] | %8
 [F,D]6 | D2 D/D/[K:treble] DGB | d3 z3 | A2 A/A/ ABG | z2 A, z2 d | cEF GcB | [=FB]3 z3 | %15
[M:13/16] EA[FB]cc3/2B |[M:3/4] [CA]2 B c3 |[M:1/8] c |[M:3/4] [Fd]2 [Fd][Gd] [Gc][GB] | %19
 [GB][FA]- [FA]3 A | B>B B A2 G | F4- FF | F>=F ^FG FG | A2 ^A[DB] cd | dA G F2 [CE] | %25
[M:5/8] D-D- D3 |] %26
V:2
 z3 z2 [D,F,] | [D,A,D]2 [D,A,D] [E,A,C]2 [E,A,C] | [F,A,D]3- [F,A,D]2 [E,C] | %3
 [D,D]2 [D,A,D] z EB,, | A,,3- A,,2 A,, | z z/ ^G,/[D,A,D] [E,A,C]2 [E,A,C] | %6
 [F,D]2- [F,^A,D-] D[K:treble]E[^G,B,=F] | [F,A,F][F,A,D][G,^A,E] D>DA,, | D,3- D,2 D | %9
 z2 [D,G,B,] [D,G,B,]2 [D,G,B,] | z2 [D,G,] [D,G,B,]2 [D,G,B,] | z2 [F,D] [E,C]2 [E,C] | [D,D]6 | %13
 z2 C z2 [G,A,C] | z2 ^G, [A,DF]2 [D,A,D] |[M:13/16] [C,A,]-<[C,A,][D,A,][A,E][^G,E]3/2[E,G,D] | %16
[M:3/4] z2[K:treble] [D^G] [E=G]3 |[M:1/8] [A,G] | %18
[M:3/4][K:bass] [D,A,]2 [D,A,][D,B,] [D,B,][D,C] | [D,D][D,D]- [D,D]3 [F,D] | %20
 [G,D]>[G,D] [G,D] [F,D]2 [E,A,C] | [D,A,D]4- [D,A,D][D,A,D] | A,2 z2 z2 | %23
 [A,D]2[K:treble] .D2 E[^G,B,=F] | [A,F][K:bass][F,A,D] [G,^A,E] [=A,D]2 [A,,G,] | %25
[M:5/8] [D,F,]-[D,F,]- [D,F,]3 |] %26
V:3
 x6 | x6 | x6 | z3 .B,,3 | x6 | .D,3 z3 | .A,3 .[G,B,]3[K:treble] | z3 .=A,3 | x6 | G,,6 | G,,6 | %11
 A,,6 | z2 F, F,3 | E,3 A,,3 | D,6 |[M:13/16] z/ z/ z/ z/ z E,/-E,-<E, z | %16
[M:3/4] [A,,A,]6[K:treble] |[M:1/8] x |[M:3/4][K:bass] x6 | x6 | x6 | x6 | %22
 [D,D]->[D,^G,D] [D,A,D][E,A,C] [E,A,C][E,A,C] | F,3[K:treble] .G,3 | x[K:bass] x5 |[M:5/8] x5 |] %26
V:4
 x6 | x6 | x6 | x5[K:bass] x | x5[K:treble] x | .[A,F]3 z3 | x6 | x5[K:bass] x | x6 | %9
 x3[K:treble] x3 | z2 B, c2 B | x6 | F6 | x6 | z2 D A2 ^F |[M:13/16] x13/2 |[M:3/4] x6 |[M:1/8] x | %18
[M:3/4] x6 | x6 | x6 | x6 | x6 | x6 | x6 |[M:5/8] x5 |] %26
V:5
 x6 | x6 | x6 | x5[K:bass] x | x5[K:treble] x | x6 | x6 | x5[K:bass] x | x6 | x3[K:treble] x3 | %10
 x6 | x6 | z3 A,3 | x6 | x6 |[M:13/16] x13/2 |[M:3/4] x6 |[M:1/8] x |[M:3/4] x6 | x6 | x6 | x6 | %22
 x6 | x6 | x6 |[M:5/8] x5 |] %26

